shader_type spatial;

render_mode cull_back, depth_draw_opaque, diffuse_burley, specular_schlick_ggx;

uniform sampler2D diffuse_texture : source_color, filter_linear_mipmap_anisotropic, repeat_enable;
uniform sampler2D normal_texture : filter_linear_mipmap_anisotropic, repeat_enable;
uniform sampler2D specgloss_texture : filter_linear_mipmap_anisotropic, repeat_enable;

uniform vec4 albedo_multiplier : source_color = vec4(1.0);

uniform float diffuse_strength : hint_range(0.0, 2.0) = 1.0;
uniform float specular_strength : hint_range(0.0, 1.0) = 1.0;
uniform float reflection_strength : hint_range(0.0, 1.0) = 0.0;
uniform float glossiness = 10.0;

uniform float height_scale : hint_range(0.0, 0.05) = 0.0;
uniform float height_offset : hint_range(-1.0, 1.0) = 0.0;

uniform int transparency = 0;
uniform float alpha_scissor_threshold : hint_range(0.0, 1.0) = 0.5;
uniform float opacity = 0.0;

const float height_strength = 0.60;  // picked by trial & error for taste
const float parallax_max_distance = 10.0;

const bool debug_show_height = false;
const bool debug_disable_parallax = false;

varying vec3 v_tangent_view;
varying vec3 v_binormal_view;
varying vec3 v_normal_view;
varying vec3 v_position_view;
varying float v_dist;

void vertex() {
    v_tangent_view = normalize(MODELVIEW_NORMAL_MATRIX * TANGENT);
    v_normal_view = normalize(MODELVIEW_NORMAL_MATRIX * NORMAL);
    v_binormal_view = normalize(cross(v_normal_view, v_tangent_view));

    v_position_view = (MODELVIEW_MATRIX * vec4(VERTEX, 1.0)).xyz;
    v_dist = length(v_position_view);
}

float glossiness_to_roughness(float source_glossiness) {
    float g = abs(source_glossiness);

    if(g < 0.0001) {
        return 1.0;
    }

    float max_glossiness = 3500.0;
    float min_roughness = 0.18;
    float max_roughness = 0.75;

    float t = log(g + 1.0) / log(max_glossiness + 1.0);

    return mix(max_roughness, min_roughness, clamp(t, 0.0, 1.0));
}

float read_height(vec2 uv) {
    // Kept raw for vendor parity; deep parallax in the original shader does not apply height_offset here.
    return texture(normal_texture, uv).b;
}

vec2 apply_parallax_mapping(vec2 uv, vec3 view_dir_tangent, float fragment_distance) {
    if (debug_disable_parallax || height_scale <= 0.0) {
        return uv;
    }

    if (fragment_distance > parallax_max_distance) {
        return uv;
    }

    vec3 view_dir = normalize(view_dir_tangent);

    const float min_layers = 8.0;
    const float max_layers = 32.0;

    float layers_weight = fragment_distance / 20.0;
    layers_weight = min(abs(dot(vec3(0.0, 0.0, 1.0), view_dir)), layers_weight);

    float num_layers = mix(max_layers, min_layers, clamp(layers_weight, 0.0, 1.0));

    float layer_depth = 1.0 / num_layers;
    float current_layer_depth = 0.0;

    vec2 p = view_dir.xy * (height_scale * height_strength);
    vec2 delta_uv = p / num_layers;

    vec2 current_uv = uv;
    float current_depth_value = read_height(current_uv);

    for (int i = 0; i < 32; i++) {
        if (i >= int(num_layers)) {
            break;
        }

        if (current_layer_depth >= current_depth_value) {
            break;
        }

        current_uv -= delta_uv;
        current_depth_value = read_height(current_uv);
        current_layer_depth += layer_depth;
    }

    vec2 prev_uv = current_uv + delta_uv;

    float after_depth = current_depth_value - current_layer_depth;
    float before_depth = read_height(prev_uv) - current_layer_depth + layer_depth;

    float denom = after_depth - before_depth;
    float weight = 0.0;

    if (abs(denom) > 0.0001) {
        weight = after_depth / denom;
    }

    weight = clamp(weight, 0.0, 1.0);

    return prev_uv * weight + current_uv * (1.0 - weight);
}

vec3 decode_normal_from_rg(vec4 normal_sample) {
    vec3 n;

    n.xy = normal_sample.rg * 2.0 - 1.0;
    n.z = sqrt(1.0 - clamp(dot(n.xy, n.xy), 0.0, 1.0));

    return n * 0.5 + 0.5;
}

bool alpha_test_failed(float alpha) {
    if (transparency == 2) {
        return alpha < alpha_scissor_threshold;
    }

    if (opacity >= 0.0) {
        return alpha < opacity;
    }

    return alpha >= -opacity;
}

void fragment() {
    vec3 T = normalize(v_tangent_view);
    vec3 B = normalize(v_binormal_view);
    vec3 N = normalize(v_normal_view);

    mat3 tbn = mat3(T, B, N);

    vec3 view_dir_view = normalize(-v_position_view);
    vec3 view_dir_tangent = normalize(transpose(tbn) * view_dir_view);

    vec2 parallax_uv = apply_parallax_mapping(UV, view_dir_tangent, v_dist);

    vec4 diffuse_sample = texture(diffuse_texture, parallax_uv) * albedo_multiplier;
    vec4 normal_sample = texture(normal_texture, parallax_uv);
    vec4 specgloss_sample = texture(specgloss_texture, parallax_uv);

    if (alpha_test_failed(diffuse_sample.a)) {
        discard;
    }

    if (debug_show_height) {
        float h = read_height(parallax_uv);

        ALBEDO = vec3(h);
        SPECULAR = 0.0;
        METALLIC = 0.0;
        ROUGHNESS = 1.0;
    } else {
        float source_specularity = specgloss_sample.r * specular_strength;
        float source_glossiness = specgloss_sample.g * abs(glossiness);
        float source_metallic = specgloss_sample.b;
        float source_reflection = reflection_strength * normal_sample.a;

        ALBEDO = diffuse_sample.rgb * diffuse_strength;

        SPECULAR = clamp(max(source_specularity, source_reflection), 0.0, 1.0);
        METALLIC = clamp(source_metallic, 0.0, 1.0);
        ROUGHNESS = glossiness_to_roughness(source_glossiness);

        NORMAL_MAP = decode_normal_from_rg(normal_sample);
        NORMAL_MAP_DEPTH = 1.0;
    }
}
